svg/fluentui-system-icons/ic_fluent_settings_cog_multiple_24_filled.svg

<svg width="24" height="24" viewBox="0 0 24 24" fill="none" xmlns="http://www.w3.org/2000/svg">
<path d="M9.00009 2C8.52964 2 8.0693 2.04651 7.62366 2.13542C7.32497 2.19501 7.09198 2.42932 7.03408 2.72835L6.67421 4.58681C6.6453 4.73609 6.49094 4.82522 6.34721 4.77561L4.55651 4.1576C4.26924 4.05845 3.95053 4.14246 3.74946 4.37033C3.14139 5.05944 2.66642 5.86988 2.36568 6.76139C2.26844 7.04965 2.35496 7.3681 2.58471 7.56752L4.01727 8.81096C4.1321 8.91063 4.1321 9.08888 4.01727 9.18856L2.58458 10.4321C2.35485 10.6315 2.26832 10.9499 2.36553 11.2382C2.6662 12.1297 3.1411 12.9401 3.74909 13.6293C3.95016 13.8572 4.26889 13.9412 4.55618 13.842L6.34721 13.2239C6.49094 13.1743 6.6453 13.2634 6.67421 13.4127L7.03417 15.2717C7.09208 15.5707 7.32507 15.805 7.62377 15.8646C8.06938 15.9535 8.52968 16 9.00009 16C9.47379 16 9.93723 15.9528 10.3857 15.8627C10.684 15.8028 10.9165 15.5687 10.9743 15.27L11.334 13.4127C11.3629 13.2634 11.5172 13.1743 11.661 13.2239L13.4459 13.8399C13.7333 13.9391 14.0521 13.855 14.2532 13.6269C14.8615 12.9367 15.3365 12.125 15.6367 11.2322C15.7336 10.9441 15.647 10.626 15.4174 10.4267L13.9909 9.18855C13.8761 9.08888 13.8761 8.91063 13.9909 8.81096L15.4173 7.57289C15.6468 7.37364 15.7334 7.05553 15.6365 6.76741C15.3363 5.87455 14.8613 5.06285 14.2528 4.3727C14.0518 4.14465 13.7329 4.06053 13.4455 4.15971L11.661 4.77561C11.5172 4.82522 11.3629 4.73609 11.334 4.58682L10.9744 2.73001C10.9166 2.43136 10.6841 2.19721 10.3859 2.13729C9.93731 2.04716 9.47383 2 9.00009 2ZM7.25101 9.00002C7.25101 8.03361 8.03448 7.25012 9.00101 7.25012C9.96754 7.25012 10.751 8.03361 10.751 9.00002C10.751 9.96644 9.96754 10.7499 9.00101 10.7499C8.03448 10.7499 7.25101 9.96644 7.25101 9.00002ZM13.4119 14.7838C13.5343 14.6223 13.749 14.5678 13.9405 14.6339L15.2 15.0686C15.4613 15.1588 15.742 14.9968 15.7945 14.7254L16.0479 13.417C16.0864 13.2178 16.2413 13.059 16.4427 13.0342C16.6253 13.0116 16.8113 13 17 13C17.1887 13 17.3746 13.0116 17.5572 13.0342C17.7586 13.059 17.9135 13.2178 17.9521 13.417L18.2054 14.7254C18.258 14.9968 18.5386 15.1588 18.8 15.0686L20.0594 14.6339C20.251 14.5678 20.4656 14.6223 20.588 14.7838C20.8121 15.0793 21.0004 15.4033 21.1467 15.7495C21.2257 15.9362 21.1656 16.1495 21.0125 16.2824L20.0054 17.1565C19.7966 17.3378 19.7966 17.6618 20.0054 17.8431L21.0126 18.7174C21.1657 18.8502 21.2258 19.0635 21.1469 19.2502C21.0006 19.5963 20.8123 19.9203 20.5883 20.2158C20.4659 20.3773 20.2512 20.4319 20.0596 20.3658L18.8 19.931C18.5386 19.8408 18.258 20.0028 18.2054 20.2742L17.952 21.583C17.9134 21.7822 17.7585 21.941 17.5571 21.9658C17.3746 21.9884 17.1886 22 17 22C16.8113 22 16.6254 21.9884 16.4428 21.9658C16.2414 21.941 16.0865 21.7822 16.0479 21.583L15.7945 20.2742C15.742 20.0028 15.4613 19.8408 15.2 19.931L13.9403 20.3658C13.7487 20.4319 13.5341 20.3773 13.4117 20.2158C13.1877 19.9203 12.9993 19.5963 12.8531 19.2502C12.7742 19.0635 12.8343 18.8502 12.9874 18.7173L13.9946 17.8431C14.2033 17.6618 14.2033 17.3378 13.9946 17.1565L12.9875 16.2824C12.8344 16.1495 12.7743 15.9362 12.8532 15.7495C12.9995 15.4034 13.1879 15.0793 13.4119 14.7838ZM18.2503 17.5C18.2503 16.8094 17.6904 16.2495 16.9998 16.2495C16.3091 16.2495 15.7492 16.8094 15.7492 17.5C15.7492 18.1907 16.3091 18.7506 16.9998 18.7506C17.6904 18.7506 18.2503 18.1907 18.2503 17.5Z" fill="#212121"/>
</svg>

<svg xmlns="http://www.w3.org/2000/svg" width="24" height="24"><path d="M9 2c-.47 0-.93.047-1.376.135a.75.75 0 0 0-.59.593l-.36 1.859a.25.25 0 0 1-.327.189l-1.79-.618a.75.75 0 0 0-.808.212 6.993 6.993 0 0 0-1.383 2.391.75.75 0 0 0 .219.807L4.017 8.81a.25.25 0 0 1 0 .378l-1.432 1.243a.75.75 0 0 0-.22.806 6.993 6.993 0 0 0 1.384 2.391.75.75 0 0 0 .807.213l1.791-.618a.25.25 0 0 1 .327.189l.36 1.859a.75.75 0 0 0 .59.593 7.03 7.03 0 0 0 2.762-.002.75.75 0 0 0 .588-.593l.36-1.857a.25.25 0 0 1 .327-.19l1.785.617a.75.75 0 0 0 .807-.213 6.995 6.995 0 0 0 1.384-2.395.75.75 0 0 0-.22-.805l-1.426-1.238a.25.25 0 0 1 0-.378l1.426-1.238a.75.75 0 0 0 .22-.806 6.99 6.99 0 0 0-1.384-2.394.75.75 0 0 0-.808-.213l-1.784.616a.25.25 0 0 1-.327-.19l-.36-1.856a.75.75 0 0 0-.588-.593A7.03 7.03 0 0 0 9 2ZM7.251 9a1.75 1.75 0 1 1 3.5 0 1.75 1.75 0 0 1-3.5 0Zm6.16 5.784a.468.468 0 0 1 .53-.15l1.259.435a.454.454 0 0 0 .595-.344l.253-1.308a.467.467 0 0 1 .395-.383 4.536 4.536 0 0 1 1.114 0 .467.467 0 0 1 .395.383l.253 1.308a.455.455 0 0 0 .595.344l1.26-.435a.468.468 0 0 1 .528.15c.224.295.412.62.559.965.079.187.019.4-.134.533l-1.008.875a.455.455 0 0 0 0 .686l1.008.874a.467.467 0 0 1 .134.533c-.146.346-.335.67-.559.966a.468.468 0 0 1-.528.15l-1.26-.435a.455.455 0 0 0-.595.343l-.253 1.309a.467.467 0 0 1-.395.383 4.533 4.533 0 0 1-1.114 0 .467.467 0 0 1-.395-.383l-.253-1.309a.454.454 0 0 0-.595-.343l-1.26.435a.468.468 0 0 1-.528-.15 4.493 4.493 0 0 1-.559-.966.467.467 0 0 1 .134-.533l1.008-.874a.455.455 0 0 0 0-.686l-1.007-.875a.467.467 0 0 1-.135-.533c.146-.346.335-.67.559-.965Zm4.84 2.716a1.25 1.25 0 1 0-2.502 0 1.25 1.25 0 0 0 2.501 0Z"/></svg>
